X:1
T:Devotion (Carden), LM
T:The Missouri Harmony, by Allen Carden, 1820
T:Devotion (Carden), LM
T:Public Domain
C:The Missouri Harmony, by Allen Carden, 1820
Z:Public Domain
%%score ( 1 2 ) ( 3 4 )
L:1/8
M:3/2
K:C
V:1 treble 
V:2 treble 
V:3 bass 
V:4 bass 
V:1
 [EG]4 | [EA]2 [Gc]2 [EA]4 [DG]4 | [EA]2 [Gc]2 [Gc]4 G4 | [Gc]2 [Bd]2 [ce]4 [Gc]4 | %4
 (dc) [GA]2 [Gc]4 [Gc]4 | [ce]2 [ce]2 [Bd]4 A4 | [Gc]2 (cA) [GB]4 [GB]4 | [Ac]2 [Ac]2 A4 [GB]4 | %8
 [Ac]2 [Gc]2 [Gc]4 |] %9
V:2
 x4 | x12 | x8 G4 | x12 | G2 x10 | x8 A4 | x2 c2 x8 | x4 A4 x4 | x8 |] %9
V:3
 [C,C]4 | [C,C]2 [C,E]2 [CE]4 [G,G]4 | E,F, [G,C]2 [C,E]4 [G,D]4 | [A,E]2 [G,D]2 [C,C]4 [F,C]4 | %4
 [G,D]2 [G,D]2 [C,E]4 [E,C]4 | [A,C]2 [A,C]2 [G,D]4 [CE]4 | [CE]2 (CE) [G,D]4 [B,DG]4 | %7
 [CE]2 A,G, [E,C]4 [G,D]4 | [F,C]2 [G,C]2 [C,E]4 |] %9
V:4
 x4 | x12 | E2 x10 | x12 | x12 | x12 | x2 A,2 x8 | x2 F2 x8 | x8 |] %9

